X:104
M:C|
L:1/8
K:F
|:b|af~fg a>gfc|egfg eccb|1 af~fg agfc|dbge ~f2f:|2 afge fdcB|
|:c|A/B/c cf dBBd|A/B/c ce fcac|A/B/c cf dBBd|cbge ~f2f:|
g|bggb affa|gece cega|babg afaf|ecge ~f2 fg|bggb affa|gece ~fdcB|

